Papirus/16x16/actions/format-text-uppercase.svg

<?xml version="1.0" encoding="UTF-8" standalone="no"?>
<svg xmlns="http://www.w3.org/2000/svg" viewBox="0 0 16 16">
  <defs>
    <style type="text/css" id="current-color-scheme">
      .ColorScheme-Text {
        color:#5c616c;
      }
      </style>
  </defs>
  <path style="fill:currentColor;opacity:1" class="ColorScheme-Text" d="M 11.214844 2 L 8.7148438 5 L 13.714844 5 L 11.214844 2 z M 3.828125 6 L 1 14 L 2.1425781 14 L 3.1171875 11.714844 L 5.8398438 11.714844 L 6.7148438 14 L 7.8574219 14 L 5.265625 6 L 3.828125 6 z M 8.7148438 6 L 8.7148438 14 L 12.714844 14 A 2.2857 2.2857 0 0 0 15 11.714844 A 2.2857 2.2857 0 0 0 13.466797 9.5605469 A 2.2857 2.2857 0 0 0 13.857422 8.2851562 A 2.2857 2.2857 0 0 0 11.572266 6 L 8.7148438 6 z M 9.8574219 7.1425781 L 11.572266 7.1425781 A 1.1429 1.1429 0 0 1 12.714844 8.2851562 A 1.1429 1.1429 0 0 1 11.572266 9.4277344 L 9.8574219 9.4277344 L 9.8574219 7.1425781 z M 4.546875 7.2402344 L 5.6191406 10.572266 L 3.3632812 10.572266 L 4.546875 7.2402344 z M 9.8574219 10.572266 L 12.714844 10.572266 A 1.1429 1.1429 0 0 1 13.857422 11.714844 A 1.1429 1.1429 0 0 1 12.714844 12.857422 L 9.8574219 12.857422 L 9.8574219 10.572266 z "/>
</svg>

<?xml version="1.0" encoding="UTF-8" standalone="no"?>
<!--Created with Inkscape (http://www.inkscape.org/)-->
<svg id="svg3049" xmlns:rdf="http://www.w3.org/1999/02/22-rdf-syntax-ns#" xmlns="http://www.w3.org/2000/svg" height="16" width="16" version="1.1" xmlns:cc="http://creativecommons.org/ns#" xmlns:dc="http://purl.org/dc/elements/1.1/">
 <defs id="defs3051">
 </defs>
 <metadata id="metadata3054">
  <rdf:RDF>
   <cc:Work rdf:about="">
    <dc:format>image/svg+xml</dc:format>
    <dc:type rdf:resource="http://purl.org/dc/dcmitype/StillImage"/>
    <dc:title/>
   </cc:Work>
  </rdf:RDF>
 </metadata>
 <g id="layer1" transform="translate(-421.71 -531.79)">
  <rect id="rect4035" height="11" width="0" y="534.79" x="417.43" fill="#5c616c"/>
  <rect id="rect4035-2" height="11" width="0" y="535.06" x="411.29" fill="#5c616c"/>
  <rect id="rect4035-5" height="11" width="0" y="533.01" x="429.33" fill="#5c616c"/>
  <rect id="rect4035-8" height="11" width="0" y="535.06" x="411.29" fill="#5c616c"/>
  <rect id="rect4035-59" height="11" width="0" y="535.06" x="411.29" fill="#5c616c"/>
  <rect id="rect4035-9" height="11" width="0" y="535.06" x="411.29" fill="#5c616c"/>
  <rect id="rect4035-5-7" height="11" width="0" y="533.01" x="429.33" fill="#5c616c"/>
  <rect id="rect4035-9-0" height="11" width="0" y="535.06" x="391.29" fill="#5c616c"/>
  <rect id="rect4035-5-7-5" height="11" width="0" y="533.01" x="409.33" fill="#5c616c"/>
  <rect id="rect4035-90" height="11" width="0" y="512.79" x="409.43" fill="#5c616c"/>
  <path id="path5641" opacity="1" fill="#5c616c" transform="translate(421.71 531.79)" d="m11.215 2l-2.5002 3h5.0002l-2.5-3zm-7.3869 4l-2.8281 8h1.1426l0.9746-2.285h2.7226l0.875 2.285h1.1426l-2.5918-8h-1.4375zm4.8867 0v8h4.0002a2.2857 2.2857 0 0 0 2.285 -2.285 2.2857 2.2857 0 0 0 -1.533 -2.1545 2.2857 2.2857 0 0 0 0.39 -1.2753 2.2857 2.2857 0 0 0 -2.285 -2.2852h-2.8572zm1.1426 1.1426h1.7146a1.1429 1.1429 0 0 1 1.143 1.1426 1.1429 1.1429 0 0 1 -1.143 1.1425h-1.7146v-2.2851zm-5.3105 0.0976l1.0722 3.3318h-2.2558l1.1836-3.3318zm5.3105 3.3318h2.8576a1.1429 1.1429 0 0 1 1.142 1.143 1.1429 1.1429 0 0 1 -1.142 1.142h-2.8576v-2.285z"/>
 </g>
</svg>
